X: 395
T: Pleskovac kolo
M: 2/4
L: 1/16
K: D
Q: 1/4=108
%%MIDI program 110 % Fiddle
%%MIDI chordprog 45 % Pizzicato Strings
%%MIDI bassprog 32 % Acoustic Bass
|: "D"F2A2 F2A2 | "A7"GFE2 "D"F2D2 :: "G"BcdB "A7"edcB |\
   "D"A2F2 F4   | "A7"EFGF AGFE                        |1 "D"D2F2 A4  :|2 "D"D2F2 D4 |]
K: G
|: "G"B2d2 B2d2 | "D7"cBA2 "G"B2G2 :: "C"efge "D7"agfe |\
   "G"d2B2 B4   | "D7"ABcB dcBA                        |1 "G"G2B2 d4  :|2 "G"G2B2 G4 |]



